packages/kaspersky-hexa-ui-icons/src/iconsSVGs/16/Moon.svg

<svg width="16" height="16" viewBox="0 0 16 16" fill="none" xmlns="http://www.w3.org/2000/svg">
<path fill-rule="evenodd" clip-rule="evenodd" d="M7.61422 1.19582C7.76324 1.38353 7.79687 1.63802 7.70173 1.85799C7.39699 2.56259 7.22779 3.34012 7.22779 4.15887C7.22779 7.36316 9.82538 9.96076 13.0297 9.96076C13.3862 9.96076 13.7347 9.92868 14.0726 9.8674C14.3084 9.82463 14.5486 9.91511 14.6976 10.1028C14.8466 10.2905 14.8803 10.545 14.7851 10.765C13.6953 13.2848 11.1866 15.05 8.26401 15.05C4.34174 15.05 1.16211 11.8703 1.16211 7.94807C1.16211 4.46059 3.67523 1.56142 6.98914 0.960402C7.22497 0.917632 7.4652 1.00811 7.61422 1.19582ZM6.10876 2.55948C3.97168 3.415 2.46211 5.50574 2.46211 7.94807C2.46211 11.1524 5.05971 13.75 8.26401 13.75C10.2361 13.75 11.9793 12.766 13.028 11.2608C9.1065 11.2598 5.92779 8.08057 5.92779 4.15887C5.92779 3.60933 5.99032 3.07388 6.10876 2.55948Z" fill="black"/>
</svg>

<svg xmlns="http://www.w3.org/2000/svg" width="16" height="16" fill="none" viewBox="0 0 16 16"><path fill="#000" fill-rule="evenodd" d="M7.6142 1.1958a.65.65 0 0 1 .0875.6622c-.3047.7046-.474 1.4821-.474 2.3009 0 3.2043 2.5977 5.8019 5.802 5.8019.3565 0 .705-.0321 1.0429-.0934a.65.65 0 0 1 .7125.8976c-1.0898 2.5198-3.5985 4.285-6.521 4.285-3.9224 0-7.102-3.1797-7.102-7.102 0-3.4874 2.5131-6.3866 5.827-6.9876a.65.65 0 0 1 .6251.2354M6.1088 2.5595C3.9717 3.415 2.462 5.5057 2.462 7.948c0 3.2043 2.5976 5.8019 5.802 5.8019 1.972 0 3.7152-.984 4.7639-2.4892-3.9215-.001-7.1002-3.1802-7.1002-7.102 0-.5495.0625-1.085.181-1.5993"/></svg>
